X: 1
T: Howard's Strathspey
C: Traditional
O: Joseph Lowe Collection
B: RSCDS 47-7
N: Tune for Memories of Mary Ann
R: strathspey
Z: 2014 John Chambers <jc:trillian.mit.edu>
M: C
L: 1/8
K: A
A |\
"A"E<A c>A "E7"G<B B>c | "A"E<A c>e "D"(3fga "A"(3edc |\
"Bm"(3def "A"(3edc "E7"d<B B>g | "A"a>f "E7"e<c "A"e<a a :|
e |\
"A"a>e f/e/d/c/ "E7"d<B B>g | "A"a>e f/e/d/c/ e<a e>c |\
"D"(3def "A"(3edc "Bm"d<B "E7"B>g | "A"a>f "E7"e<c "A"e>a a ||
e |\
"A"a>e f/e/d/c/ "E7"d<B B>g | "A"(3agf "E7"(3gfe "Bm"(3fed "A"(3edc |\
"D"(3def "A"(3edc "Bm"d<B "E7"B>g | "A"a>f "E7"e<c "A"e<a a |]

%%center Book47/4707-Howards_Strathspey-A-16-3.abc
%%sep 1 1 500
%%sep 1 1 500

